X: 1
T: Hills of Glenurchie
M: 6/8
R: jig
K: Em
d| "Em"BGE EFE| BAB d2B| "D"AFD DED| AFA ded|
"Em"BGE EFE| BAB d2e| "G"dBd "D"AFD| "Em"EFE E2:|
|:B| "Em"efe edB| efg "A7"f2e| "D"ded dAB| def "Bm"fed|
"Em"efe edB| efg "A7"f2e| "D"dBd "Bm"AFD| "Em" E3 z2:|
